static/cards/FrenchDeck/cyberwave/card_clubs_10.svg

<svg xmlns="http://www.w3.org/2000/svg" width="822" height="1122" fill="none" viewBox="0 0 822 1122"><rect width="822" height="1122" fill="#1a0033" rx="20"/><g fill="#fff066" clip-path="url(#a)"><path d="M56.577 159q-1.536 0-2.304-.512-.64-.64-.64-2.048v-.896q-.001-2.816 2.944-2.816h15.615v-72.32l-14.847 8.96q-1.152.768-2.048.768-1.024 0-1.792-1.408l-.513-.768q-.51-.896-.511-1.664 0-1.408 1.535-2.304L72.96 72.6q1.025-.64 2.433-.64h.767q2.945 0 2.945 2.944v77.824H94.72q2.945 0 2.945 2.816v.896q0 1.408-.769 2.048-.639.512-2.175.512zm92.843 1.92q-19.713 0-29.952-11.776-10.24-11.904-10.24-33.664t10.24-33.536Q129.707 70.04 149.42 70.04q19.712 0 29.952 11.904 10.24 11.775 10.24 33.536 0 21.76-10.24 33.664-10.24 11.776-29.952 11.776m20.48-79.232q-7.937-5.76-20.48-5.76-16.512 0-25.088 10.112-8.448 9.984-8.448 29.44 0 19.968 8.832 29.952zm-20.48 73.344q16.512 0 24.96-9.984 8.576-10.112 8.576-29.568 0-19.2-8.449-29.44l-45.055 63.616q7.68 5.376 19.968 5.376M141.309 231.337v-.004c0-11.782-9.224-21.333-20.603-21.333s-20.603 9.551-20.603 21.333c-11.379 0-20.603 9.552-20.603 21.334S88.724 274 100.103 274c10.386 0 18.977-7.957 20.397-18.305C121.92 266.043 130.511 274 140.897 274c11.379 0 20.603-9.551 20.603-21.333 0-11.64-9.002-21.102-20.191-21.33"/><rect width="5" height="33" x="118.5" y="251" rx="2.5"/><path d="M757.423 959q1.536 0 2.304.512.64.64.64 2.048v.896q0 2.816-2.944 2.816h-15.616v72.318l14.848-8.96c.768-.51 1.451-.77 2.048-.77q1.024 0 1.792 1.41l.512.77c.342.6.512 1.15.512 1.66q0 1.41-1.536 2.31l-18.944 11.39c-.682.43-1.493.64-2.432.64h-.768q-2.943 0-2.943-2.94v-77.828h-15.617q-2.943 0-2.944-2.816v-.896q0-1.408.768-2.048.64-.512 2.176-.512zm-92.843-1.92q19.713 0 29.952 11.776 10.24 11.904 10.24 33.664 0 21.765-10.24 33.54c-6.826 7.93-16.81 11.9-29.952 11.9-13.141 0-23.125-3.97-29.952-11.9q-10.24-11.775-10.24-33.54 0-21.76 10.24-33.664 10.24-11.776 29.952-11.776m-20.48 79.23q7.937 5.76 20.48 5.76 16.512 0 25.088-10.11c5.632-6.66 8.448-16.47 8.448-29.44q0-19.968-8.832-29.952zm20.48-73.342q-16.512 0-24.96 9.984-8.576 10.111-8.576 29.568c0 12.8 2.816 22.61 8.449 29.44l45.055-63.616q-7.68-5.376-19.968-5.376M672.691 886.663v.004c0 11.782 9.224 21.333 20.603 21.333s20.603-9.551 20.603-21.333c11.379 0 20.603-9.552 20.603-21.334S725.276 844 713.897 844c-10.386 0-18.977 7.957-20.397 18.305C692.08 851.957 683.489 844 673.103 844c-11.379 0-20.603 9.551-20.603 21.333 0 11.64 9.002 21.102 20.191 21.33"/><rect width="5" height="33" x="695.5" y="867" rx="2.5" transform="rotate(-180 695.5 867)"/></g><path stroke="#fff066" stroke-width="8" d="M411.779 439.935c13.001 0 23.889 11.163 23.889 25.377v3.923l3.918.081c12.786.265 23.414 11.333 23.414 25.372 0 14.214-10.889 25.377-23.89 25.377-11.873 0-21.966-9.289-23.646-21.741h-7.928c-1.68 12.452-11.773 21.741-23.646 21.741-13.001 0-23.89-11.163-23.89-25.377s10.889-25.376 23.89-25.376h4v-4c0-14.214 10.889-25.377 23.889-25.377Z"/><path fill="#fff066" d="M408.307 502.026a3.041 3.041 0 1 1 6.082 0v30.933a3.041 3.041 0 1 1-6.082 0z"/><path stroke="#fff066" stroke-width="8" d="M243.779 601.935c13.001 0 23.889 11.163 23.889 25.377v3.923l3.918.081c12.786.265 23.414 11.333 23.414 25.372 0 14.214-10.889 25.377-23.89 25.377-11.873 0-21.966-9.289-23.646-21.741h-7.928c-1.68 12.452-11.773 21.741-23.646 21.741-13.001 0-23.89-11.163-23.89-25.377s10.889-25.376 23.89-25.376h4v-4c0-14.214 10.889-25.377 23.889-25.377Z"/><path fill="#fff066" d="M240.307 664.026a3.041 3.041 0 1 1 6.082 0v30.933a3.041 3.041 0 1 1-6.082 0z"/><path stroke="#fff066" stroke-width="8" d="M407.779 601.935c13.001 0 23.889 11.163 23.889 25.377v3.923l3.918.081c12.786.265 23.414 11.333 23.414 25.372 0 14.214-10.889 25.377-23.89 25.377-11.873 0-21.966-9.289-23.646-21.741h-7.928c-1.68 12.452-11.773 21.741-23.646 21.741-13.001 0-23.89-11.163-23.89-25.377s10.889-25.376 23.89-25.376h4v-4c0-14.214 10.889-25.377 23.889-25.377Z"/><path fill="#fff066" d="M404.307 664.026a3.041 3.041 0 1 1 6.082 0v30.933a3.041 3.041 0 1 1-6.082 0z"/><path stroke="#fff066" stroke-width="8" d="M411.779 763.935c13.001 0 23.889 11.163 23.889 25.377v3.923l3.918.081c12.786.265 23.414 11.333 23.414 25.372 0 14.214-10.889 25.377-23.89 25.377-11.873 0-21.966-9.289-23.646-21.741h-7.928c-1.68 12.452-11.773 21.741-23.646 21.741-13.001 0-23.89-11.163-23.89-25.377s10.889-25.376 23.89-25.376h4v-4c0-14.214 10.889-25.377 23.889-25.377Z"/><path fill="#fff066" d="M408.307 826.026a3.041 3.041 0 1 1 6.082 0v30.933a3.041 3.041 0 1 1-6.082 0z"/><path stroke="#fff066" stroke-width="8" d="M579.779 601.935c13.001 0 23.889 11.163 23.889 25.377v3.923l3.918.081c12.786.265 23.414 11.333 23.414 25.372 0 14.214-10.889 25.377-23.89 25.377-11.873 0-21.966-9.289-23.646-21.741h-7.928c-1.68 12.452-11.773 21.741-23.646 21.741-13.001 0-23.89-11.163-23.89-25.377s10.889-25.376 23.89-25.376h4v-4c0-14.214 10.889-25.377 23.889-25.377Z"/><path fill="#fff066" d="M576.307 664.026a3.041 3.041 0 1 1 6.082 0v30.933a3.041 3.041 0 1 1-6.082 0z"/><path stroke="#fff066" stroke-width="8" d="M579.779 439.935c13.001 0 23.889 11.163 23.889 25.377v3.923l3.918.081c12.786.265 23.414 11.333 23.414 25.372 0 14.214-10.889 25.377-23.89 25.377-11.873 0-21.966-9.289-23.646-21.741h-7.928c-1.68 12.452-11.773 21.741-23.646 21.741-13.001 0-23.89-11.163-23.89-25.377s10.889-25.376 23.89-25.376h4v-4c0-14.214 10.889-25.377 23.889-25.377Z"/><path fill="#fff066" d="M576.307 502.026a3.041 3.041 0 1 1 6.082 0v30.933a3.041 3.041 0 1 1-6.082 0z"/><path stroke="#fff066" stroke-width="8" d="M243.779 439.935c13.001 0 23.889 11.163 23.889 25.377v3.923l3.918.081c12.786.265 23.414 11.333 23.414 25.372 0 14.214-10.889 25.377-23.89 25.377-11.873 0-21.966-9.289-23.646-21.741h-7.928c-1.68 12.452-11.773 21.741-23.646 21.741-13.001 0-23.89-11.163-23.89-25.377s10.889-25.376 23.89-25.376h4v-4c0-14.214 10.889-25.377 23.889-25.377Z"/><path fill="#fff066" d="M240.307 502.026a3.041 3.041 0 1 1 6.082 0v30.933a3.041 3.041 0 1 1-6.082 0z"/><path stroke="#fff066" stroke-width="8" d="M579.779 277.935c13.001 0 23.889 11.163 23.889 25.377v3.923l3.918.081c12.786.265 23.414 11.333 23.414 25.372 0 14.214-10.889 25.377-23.89 25.377-11.873 0-21.966-9.289-23.646-21.741h-7.928c-1.68 12.452-11.773 21.741-23.646 21.741-13.001 0-23.89-11.163-23.89-25.377s10.889-25.376 23.89-25.376h4v-4c0-14.214 10.889-25.377 23.889-25.377Z"/><path fill="#fff066" d="M576.307 340.026a3.041 3.041 0 1 1 6.082 0v30.933a3.041 3.041 0 1 1-6.082 0z"/><path stroke="#fff066" stroke-width="8" d="M243.779 277.935c13.001 0 23.889 11.163 23.889 25.377v3.923l3.918.081c12.786.265 23.414 11.333 23.414 25.372 0 14.214-10.889 25.377-23.89 25.377-11.873 0-21.966-9.289-23.646-21.741h-7.928c-1.68 12.452-11.773 21.741-23.646 21.741-13.001 0-23.89-11.163-23.89-25.377s10.889-25.376 23.89-25.376h4v-4c0-14.214 10.889-25.377 23.889-25.377Z"/><path fill="#fff066" d="M240.307 340.026a3.041 3.041 0 1 1 6.082 0v30.933a3.041 3.041 0 1 1-6.082 0z"/><path stroke="#fff066" stroke-width="8" d="M411.779 277.935c13.001 0 23.889 11.163 23.889 25.377v3.923l3.918.081c12.786.265 23.414 11.333 23.414 25.372 0 14.214-10.889 25.377-23.89 25.377-11.873 0-21.966-9.289-23.646-21.741h-7.928c-1.68 12.452-11.773 21.741-23.646 21.741-13.001 0-23.89-11.163-23.89-25.377s10.889-25.376 23.89-25.376h4v-4c0-14.214 10.889-25.377 23.889-25.377Z"/><path fill="#fff066" d="M408.307 340.026a3.041 3.041 0 1 1 6.082 0v30.933a3.041 3.041 0 1 1-6.082 0z"/><defs><clipPath id="a"><path fill="#fff" d="M46 48h722v1022H46z"/></clipPath></defs></svg>

<svg width="822" height="1122" viewBox="0 0 822 1122" fill="none" xmlns="http://www.w3.org/2000/svg">
<rect width="822" height="1122" rx="20" fill="#1A0033"/>
<g clip-path="url(#clip0_31_2050)">
<path d="M56.5765 159C55.5525 159 54.7845 158.829 54.2725 158.488C53.8458 158.061 53.6325 157.379 53.6325 156.44V155.544C53.6325 153.667 54.6138 152.728 56.5765 152.728H72.1925V80.408L57.3445 89.368C56.5765 89.88 55.8938 90.136 55.2965 90.136C54.6138 90.136 54.0165 89.6667 53.5045 88.728L52.9925 87.96C52.6512 87.3627 52.4805 86.808 52.4805 86.296C52.4805 85.3573 52.9925 84.5893 54.0165 83.992L72.9605 72.6C73.6432 72.1733 74.4538 71.96 75.3925 71.96H76.1605C78.1232 71.96 79.1045 72.9413 79.1045 74.904V152.728H94.7205C96.6832 152.728 97.6645 153.667 97.6645 155.544V156.44C97.6645 157.379 97.4085 158.061 96.8965 158.488C96.4698 158.829 95.7445 159 94.7205 159H56.5765ZM149.42 160.92C136.278 160.92 126.294 156.995 119.468 149.144C112.641 141.208 109.228 129.987 109.228 115.48C109.228 100.973 112.641 89.7947 119.468 81.944C126.294 74.008 136.278 70.04 149.42 70.04C162.561 70.04 172.545 74.008 179.372 81.944C186.198 89.7947 189.612 100.973 189.612 115.48C189.612 129.987 186.198 141.208 179.372 149.144C172.545 156.995 162.561 160.92 149.42 160.92ZM169.9 81.688C164.609 77.848 157.782 75.928 149.42 75.928C138.412 75.928 130.049 79.2987 124.332 86.04C118.7 92.696 115.884 102.509 115.884 115.48C115.884 128.792 118.828 138.776 124.716 145.432L169.9 81.688ZM149.42 155.032C160.428 155.032 168.748 151.704 174.38 145.048C180.097 138.307 182.956 128.451 182.956 115.48C182.956 102.68 180.14 92.8667 174.507 86.04L129.452 149.656C134.572 153.24 141.228 155.032 149.42 155.032Z" fill="#FFF066"/>
<path d="M141.309 231.337C141.309 231.336 141.309 231.335 141.309 231.333C141.309 219.551 132.085 210 120.706 210C109.327 210 100.103 219.551 100.103 231.333C88.7243 231.333 79.5 240.885 79.5 252.667C79.5 264.449 88.7243 274 100.103 274C110.489 274 119.08 266.043 120.5 255.695C121.92 266.043 130.511 274 140.897 274C152.276 274 161.5 264.449 161.5 252.667C161.5 241.027 152.498 231.565 141.309 231.337Z" fill="#FFF066"/>
<rect x="118.5" y="251" width="5" height="33" rx="2.5" fill="#FFF066"/>
<path d="M757.423 959C758.447 959 759.215 959.171 759.727 959.512C760.154 959.939 760.367 960.621 760.367 961.56V962.456C760.367 964.333 759.386 965.272 757.423 965.272H741.807V1037.59L756.655 1028.63C757.423 1028.12 758.106 1027.86 758.703 1027.86C759.386 1027.86 759.983 1028.33 760.495 1029.27L761.007 1030.04C761.349 1030.64 761.519 1031.19 761.519 1031.7C761.519 1032.64 761.007 1033.41 759.983 1034.01L741.039 1045.4C740.357 1045.83 739.546 1046.04 738.607 1046.04H737.839C735.877 1046.04 734.896 1045.06 734.896 1043.1V965.272H719.279C717.317 965.272 716.335 964.333 716.335 962.456V961.56C716.335 960.621 716.591 959.939 717.103 959.512C717.53 959.171 718.255 959 719.279 959H757.423ZM664.58 957.08C677.722 957.08 687.706 961.005 694.532 968.856C701.359 976.792 704.772 988.013 704.772 1002.52C704.772 1017.03 701.359 1028.21 694.532 1036.06C687.706 1043.99 677.722 1047.96 664.58 1047.96C651.439 1047.96 641.455 1043.99 634.628 1036.06C627.802 1028.21 624.388 1017.03 624.388 1002.52C624.388 988.013 627.802 976.792 634.628 968.856C641.455 961.005 651.439 957.08 664.58 957.08ZM644.1 1036.31C649.391 1040.15 656.218 1042.07 664.58 1042.07C675.588 1042.07 683.951 1038.7 689.668 1031.96C695.3 1025.3 698.116 1015.49 698.116 1002.52C698.116 989.208 695.172 979.224 689.284 972.568L644.1 1036.31ZM664.58 962.968C653.572 962.968 645.252 966.296 639.62 972.952C633.903 979.693 631.044 989.549 631.044 1002.52C631.044 1015.32 633.86 1025.13 639.493 1031.96L684.548 968.344C679.428 964.76 672.772 962.968 664.58 962.968Z" fill="#FFF066"/>
<path d="M672.691 886.663C672.691 886.664 672.691 886.665 672.691 886.667C672.691 898.449 681.915 908 693.294 908C704.673 908 713.897 898.449 713.897 886.667C725.276 886.667 734.5 877.115 734.5 865.333C734.5 853.551 725.276 844 713.897 844C703.511 844 694.92 851.957 693.5 862.305C692.08 851.957 683.489 844 673.103 844C661.724 844 652.5 853.551 652.5 865.333C652.5 876.973 661.502 886.435 672.691 886.663Z" fill="#FFF066"/>
<rect x="695.5" y="867" width="5" height="33" rx="2.5" transform="rotate(-180 695.5 867)" fill="#FFF066"/>
</g>
<path d="M411.779 439.935C424.78 439.935 435.668 451.098 435.668 465.312V469.235L439.586 469.316C452.372 469.581 463 480.649 463 494.688C463 508.902 452.111 520.065 439.11 520.065C427.237 520.065 417.144 510.776 415.464 498.324H407.536C405.856 510.776 395.763 520.065 383.89 520.065C370.889 520.065 360 508.902 360 494.688C360 480.475 370.889 469.312 383.89 469.312H387.89V465.312C387.89 451.098 398.779 439.935 411.779 439.935Z" stroke="#FFF066" stroke-width="8"/>
<path d="M408.307 502.026C408.307 500.347 409.668 498.985 411.348 498.985C413.028 498.985 414.389 500.347 414.389 502.026V532.959C414.389 534.638 413.028 536 411.348 536C409.668 536 408.307 534.638 408.307 532.959V502.026Z" fill="#FFF066"/>
<path d="M243.779 601.935C256.78 601.935 267.668 613.098 267.668 627.312V631.235L271.586 631.316C284.372 631.581 295 642.649 295 656.688C295 670.902 284.111 682.065 271.11 682.065C259.237 682.065 249.144 672.776 247.464 660.324H239.536C237.856 672.776 227.763 682.065 215.89 682.065C202.889 682.065 192 670.902 192 656.688C192 642.475 202.889 631.312 215.89 631.312H219.89V627.312C219.89 613.098 230.779 601.935 243.779 601.935Z" stroke="#FFF066" stroke-width="8"/>
<path d="M240.307 664.026C240.307 662.347 241.668 660.985 243.348 660.985C245.028 660.985 246.389 662.347 246.389 664.026V694.959C246.389 696.638 245.028 698 243.348 698C241.668 698 240.307 696.638 240.307 694.959V664.026Z" fill="#FFF066"/>
<path d="M407.779 601.935C420.78 601.935 431.668 613.098 431.668 627.312V631.235L435.586 631.316C448.372 631.581 459 642.649 459 656.688C459 670.902 448.111 682.065 435.11 682.065C423.237 682.065 413.144 672.776 411.464 660.324H403.536C401.856 672.776 391.763 682.065 379.89 682.065C366.889 682.065 356 670.902 356 656.688C356 642.475 366.889 631.312 379.89 631.312H383.89V627.312C383.89 613.098 394.779 601.935 407.779 601.935Z" stroke="#FFF066" stroke-width="8"/>
<path d="M404.307 664.026C404.307 662.347 405.668 660.985 407.348 660.985C409.028 660.985 410.389 662.347 410.389 664.026V694.959C410.389 696.638 409.028 698 407.348 698C405.668 698 404.307 696.638 404.307 694.959V664.026Z" fill="#FFF066"/>
<path d="M411.779 763.935C424.78 763.935 435.668 775.098 435.668 789.312V793.235L439.586 793.316C452.372 793.581 463 804.649 463 818.688C463 832.902 452.111 844.065 439.11 844.065C427.237 844.065 417.144 834.776 415.464 822.324H407.536C405.856 834.776 395.763 844.065 383.89 844.065C370.889 844.065 360 832.902 360 818.688C360 804.475 370.889 793.312 383.89 793.312H387.89V789.312C387.89 775.098 398.779 763.935 411.779 763.935Z" stroke="#FFF066" stroke-width="8"/>
<path d="M408.307 826.026C408.307 824.347 409.668 822.985 411.348 822.985C413.028 822.985 414.389 824.347 414.389 826.026V856.959C414.389 858.638 413.028 860 411.348 860C409.668 860 408.307 858.638 408.307 856.959V826.026Z" fill="#FFF066"/>
<path d="M579.779 601.935C592.78 601.935 603.668 613.098 603.668 627.312V631.235L607.586 631.316C620.372 631.581 631 642.649 631 656.688C631 670.902 620.111 682.065 607.11 682.065C595.237 682.065 585.144 672.776 583.464 660.324H575.536C573.856 672.776 563.763 682.065 551.89 682.065C538.889 682.065 528 670.902 528 656.688C528 642.475 538.889 631.312 551.89 631.312H555.89V627.312C555.89 613.098 566.779 601.935 579.779 601.935Z" stroke="#FFF066" stroke-width="8"/>
<path d="M576.307 664.026C576.307 662.347 577.668 660.985 579.348 660.985C581.028 660.985 582.389 662.347 582.389 664.026V694.959C582.389 696.638 581.028 698 579.348 698C577.668 698 576.307 696.638 576.307 694.959V664.026Z" fill="#FFF066"/>
<path d="M579.779 439.935C592.78 439.935 603.668 451.098 603.668 465.312V469.235L607.586 469.316C620.372 469.581 631 480.649 631 494.688C631 508.902 620.111 520.065 607.11 520.065C595.237 520.065 585.144 510.776 583.464 498.324H575.536C573.856 510.776 563.763 520.065 551.89 520.065C538.889 520.065 528 508.902 528 494.688C528 480.475 538.889 469.312 551.89 469.312H555.89V465.312C555.89 451.098 566.779 439.935 579.779 439.935Z" stroke="#FFF066" stroke-width="8"/>
<path d="M576.307 502.026C576.307 500.347 577.668 498.985 579.348 498.985C581.028 498.985 582.389 500.347 582.389 502.026V532.959C582.389 534.638 581.028 536 579.348 536C577.668 536 576.307 534.638 576.307 532.959V502.026Z" fill="#FFF066"/>
<path d="M243.779 439.935C256.78 439.935 267.668 451.098 267.668 465.312V469.235L271.586 469.316C284.372 469.581 295 480.649 295 494.688C295 508.902 284.111 520.065 271.11 520.065C259.237 520.065 249.144 510.776 247.464 498.324H239.536C237.856 510.776 227.763 520.065 215.89 520.065C202.889 520.065 192 508.902 192 494.688C192 480.475 202.889 469.312 215.89 469.312H219.89V465.312C219.89 451.098 230.779 439.935 243.779 439.935Z" stroke="#FFF066" stroke-width="8"/>
<path d="M240.307 502.026C240.307 500.347 241.668 498.985 243.348 498.985C245.028 498.985 246.389 500.347 246.389 502.026V532.959C246.389 534.638 245.028 536 243.348 536C241.668 536 240.307 534.638 240.307 532.959V502.026Z" fill="#FFF066"/>
<path d="M579.779 277.935C592.78 277.935 603.668 289.098 603.668 303.312V307.235L607.586 307.316C620.372 307.581 631 318.649 631 332.688C631 346.902 620.111 358.065 607.11 358.065C595.237 358.065 585.144 348.776 583.464 336.324H575.536C573.856 348.776 563.763 358.065 551.89 358.065C538.889 358.065 528 346.902 528 332.688C528 318.475 538.889 307.312 551.89 307.312H555.89V303.312C555.89 289.098 566.779 277.935 579.779 277.935Z" stroke="#FFF066" stroke-width="8"/>
<path d="M576.307 340.026C576.307 338.347 577.668 336.985 579.348 336.985C581.028 336.985 582.389 338.347 582.389 340.026V370.959C582.389 372.638 581.028 374 579.348 374C577.668 374 576.307 372.638 576.307 370.959V340.026Z" fill="#FFF066"/>
<path d="M243.779 277.935C256.78 277.935 267.668 289.098 267.668 303.312V307.235L271.586 307.316C284.372 307.581 295 318.649 295 332.688C295 346.902 284.111 358.065 271.11 358.065C259.237 358.065 249.144 348.776 247.464 336.324H239.536C237.856 348.776 227.763 358.065 215.89 358.065C202.889 358.065 192 346.902 192 332.688C192 318.475 202.889 307.312 215.89 307.312H219.89V303.312C219.89 289.098 230.779 277.935 243.779 277.935Z" stroke="#FFF066" stroke-width="8"/>
<path d="M240.307 340.026C240.307 338.347 241.668 336.985 243.348 336.985C245.028 336.985 246.389 338.347 246.389 340.026V370.959C246.389 372.638 245.028 374 243.348 374C241.668 374 240.307 372.638 240.307 370.959V340.026Z" fill="#FFF066"/>
<path d="M411.779 277.935C424.78 277.935 435.668 289.098 435.668 303.312V307.235L439.586 307.316C452.372 307.581 463 318.649 463 332.688C463 346.902 452.111 358.065 439.11 358.065C427.237 358.065 417.144 348.776 415.464 336.324H407.536C405.856 348.776 395.763 358.065 383.89 358.065C370.889 358.065 360 346.902 360 332.688C360 318.475 370.889 307.312 383.89 307.312H387.89V303.312C387.89 289.098 398.779 277.935 411.779 277.935Z" stroke="#FFF066" stroke-width="8"/>
<path d="M408.307 340.026C408.307 338.347 409.668 336.985 411.348 336.985C413.028 336.985 414.389 338.347 414.389 340.026V370.959C414.389 372.638 413.028 374 411.348 374C409.668 374 408.307 372.638 408.307 370.959V340.026Z" fill="#FFF066"/>
<defs>
<clipPath id="clip0_31_2050">
<rect width="722" height="1022" fill="white" transform="translate(46 48)"/>
</clipPath>
</defs>
</svg>
